svgs/sharp-regular/drumstick-bite.svg

<svg xmlns="http://www.w3.org/2000/svg" viewBox="0 0 512 512"><!--! Font Awesome Pro 6.6.0 by @fontawesome - https://fontawesome.com License - https://fontawesome.com/license (Commercial License) Copyright 2024 Fonticons, Inc. --><path d="M233.5 352l-58.4 58.3C185.6 421.1 192 435.8 192 452c0 33.1-26.9 60-60 60s-60-26.9-60-60l0-12-12 0c-33.1 0-60-26.9-60-60s26.9-60 60-60c16.2 0 30.9 6.4 41.6 16.8L160 278.5l0-22.5 0-24 0-56C160 78.8 238.8 0 336 0c76.3 0 141.3 48.6 165.7 116.5c6.1 17 9.7 35.3 10.2 54.3C497.4 163.9 481.1 160 464 160l-1 0c-61.4 .5-111 50.5-111 112c0 10.5 1.5 20.8 4.2 30.4c4.7 16.5 13 31.5 24.1 44c-14.1 3.7-29 5.6-44.3 5.6l-10.6 0L280 352l-24 0-22.5 0zM208 270.1L241.9 304l14.1 0 51.2 0c-2.1-10.3-3.2-21-3.2-32c0-82.7 62.8-150.8 143.4-159.1C425.4 74.1 383.7 48 336 48c-70.7 0-128 57.3-128 128l0 80 0 14.1z"/></svg>

<svg xmlns="http://www.w3.org/2000/svg" viewBox="0 0 512 512"><!--! Font Awesome Pro 6.4.0 by @fontawesome - https://fontawesome.com License - https://fontawesome.com/license (Commercial License) Copyright 2023 Fonticons, Inc. --><path d="M233.5 352l-58.4 58.3C185.6 421.1 192 435.8 192 452c0 33.1-26.9 60-60 60s-60-26.9-60-60V440H60c-33.1 0-60-26.9-60-60s26.9-60 60-60c16.2 0 30.9 6.4 41.6 16.8L160 278.5V256 232 176C160 78.8 238.8 0 336 0c76.3 0 141.3 48.6 165.7 116.5c6.1 17 9.7 35.3 10.2 54.3C497.4 163.9 481.1 160 464 160l-1 0c-61.4 .5-111 50.5-111 112c0 10.5 1.5 20.8 4.2 30.4c4.7 16.5 13 31.5 24.1 44c-14.1 3.7-29 5.6-44.3 5.6H325.4 280 256 233.5zM208 270.1L241.9 304H256h51.2c-2.1-10.3-3.2-21-3.2-32c0-82.7 62.8-150.8 143.4-159.1C425.4 74.1 383.7 48 336 48c-70.7 0-128 57.3-128 128v80 14.1z"/></svg>
